src/assets/icons/time,fancy,clock.svg

<svg width="48" height="48" viewBox="0 0 48 48" fill="none" xmlns="http://www.w3.org/2000/svg">
<path opacity="0.2" fill-rule="evenodd" clip-rule="evenodd" d="M24 46C36.1503 46 46 36.1503 46 24C46 11.8497 36.1503 2 24 2C11.8497 2 2 11.8497 2 24C2 36.1503 11.8497 46 24 46ZM26 35C33.1797 35 39 29.1797 39 22C39 14.8203 33.1797 9 26 9C18.8203 9 13 14.8203 13 22C13 29.1797 18.8203 35 26 35Z" fill="black"/>
<path opacity="0.2" d="M46 24C46 36.1503 36.1503 46 24 46C11.8497 46 2 36.1503 2 24C2 11.8497 11.8497 2 24 2C36.1503 2 46 11.8497 46 24Z" fill="black"/>
<path fill-rule="evenodd" clip-rule="evenodd" d="M24 42C33.9411 42 42 33.9411 42 24C42 14.0589 33.9411 6 24 6C14.0589 6 6 14.0589 6 24C6 33.9411 14.0589 42 24 42ZM26.1429 13.0714C26.1429 12.0063 25.2794 11.1429 24.2143 11.1429C23.1492 11.1429 22.2857 12.0063 22.2857 13.0714V25.9286C22.2857 26.9937 23.1492 27.8571 24.2143 27.8571H30.6429C31.708 27.8571 32.5714 26.9937 32.5714 25.9286C32.5714 24.8635 31.708 24 30.6429 24H26.1429V13.0714Z" fill="black"/>
</svg>

<svg xmlns="http://www.w3.org/2000/svg" width="48" height="48" fill="none" viewBox="0 0 48 48">
  <path fill="#000" fill-rule="evenodd" d="M24 46c12.15 0 22-9.85 22-22S36.15 2 24 2 2 11.85 2 24s9.85 22 22 22zm2-11c7.18 0 13-5.82 13-13S33.18 9 26 9s-13 5.82-13 13 5.82 13 13 13z" clip-rule="evenodd" opacity=".2"/>
  <path fill="#000" d="M46 24c0 12.15-9.85 22-22 22S2 36.15 2 24 11.85 2 24 2s22 9.85 22 22z" opacity=".2"/>
  <path fill="#000" fill-rule="evenodd" d="M24 42c9.941 0 18-8.059 18-18S33.941 6 24 6 6 14.059 6 24s8.059 18 18 18zm2.143-28.929a1.929 1.929 0 00-3.857 0V25.93c0 1.065.863 1.928 1.928 1.928h6.429a1.928 1.928 0 100-3.857h-4.5V13.071z" clip-rule="evenodd"/>
</svg>
